shader_type canvas_item;

void vertex() {
	// Called for every vertex the material is visible on.
}

void fragment() {
	if (UV.x + UV.y < 1.8) {
		COLOR = vec4(vec3(0.0), 1.0);
	} else {
		COLOR = vec4(0.0);
	}
}

void light() {
	// Called for every pixel for every light affecting the CanvasItem.
}
